app/dist/common/images/future-metals-nl.svg

<svg height="18" viewBox="0 0 18 18" width="18" xmlns="http://www.w3.org/2000/svg" xmlns:xlink="http://www.w3.org/1999/xlink"><linearGradient id="a" gradientUnits="userSpaceOnUse" x1="8.41" x2="3.73" y1="7.12" y2="10.3"><stop offset="0" stop-color="#434b5c"/><stop offset=".79" stop-color="#21293a"/></linearGradient><linearGradient id="b" gradientUnits="userSpaceOnUse" x1="7.57" x2="4.12" y1="7.94" y2="7.94"><stop offset="0" stop-color="#3c4555"/><stop offset=".4" stop-color="#757d8d"/></linearGradient><linearGradient id="c" gradientUnits="userSpaceOnUse" x1="9.36" x2="14.61" y1="10.64" y2="7.98"><stop offset="0" stop-color="#2f3748"/><stop offset="1" stop-color="#727a8a"/></linearGradient><linearGradient id="d" gradientUnits="userSpaceOnUse" x1="14.66" x2="3.29" y1="7.22" y2="10.3"><stop offset="0" stop-color="#21293a"/><stop offset="1" stop-color="#737b8b"/></linearGradient><linearGradient id="e" gradientUnits="userSpaceOnUse" x1="9.97" x2="13.88" y1="10.43" y2="10.35"><stop offset="0" stop-color="#61697a"/><stop offset="1" stop-color="#222a3b"/></linearGradient><path d="m0 0h18v18h-18z" fill="#f0f3fa"/><path d="m9 7.92c-.38-.64-1.55-1.92-3.11-1.92-1.96 0-2.89 1.65-2.89 3 0 1.36.99 3 2.75 3 1.67 0 2.9-1.5 3.2-1.87l.05-.06zm-.7 1.07c-.36-.62-1.34-1.79-2.5-1.79-.9 0-1.8.82-1.8 1.8 0 .97.98 1.8 1.81 1.8s1.82-.73 2.48-1.8z" fill="url(#a)" fill-rule="evenodd"/><path d="m8.22 8.87c-.97-1.76-1.98-1.87-2.42-1.87a1.83 1.83 0 0 0 -1.8 1.88c.06-.93.92-1.58 1.81-1.58 1.09 0 2.02.93 2.41 1.57z" fill="url(#b)"/><path d="m9 10.08c.38.64 1.55 1.92 3.11 1.92 1.96 0 2.89-1.65 2.89-3 0-1.36-.99-3-2.75-3-1.67 0-2.9 1.5-3.2 1.87l-.05.06zm.71-1.07c.34.62 1.32 1.86 2.48 1.86.92 0 1.81-.89 1.81-1.86 0-.98-.98-1.81-1.81-1.81s-1.82.73-2.48 1.8z" fill="url(#c)" fill-rule="evenodd"/><path d="m8.98 10.1c-.31.37-1.56 1.9-3.22 1.9-1.73 0-2.73-1.59-2.76-2.93.29 1.28 1.35 2.23 2.45 2.23 1.75 0 3.1-2.24 3.55-3.37.3-.38 1.58-1.93 3.24-1.93 1.73 0 2.73 1.58 2.76 2.92-.29-1.28-1.35-2.22-2.45-2.22-1.75 0-3.13 2.26-3.57 3.39z" fill="url(#d)"/><path d="m9.78 9.13c.97 1.76 1.98 1.87 2.43 1.87a1.83 1.83 0 0 0 1.79-1.88c-.06.93-.92 1.58-1.81 1.58-1.09 0-2.02-.93-2.41-1.57z" fill="url(#e)"/></svg>

<!-- by TradingView --><svg width="18" height="18" viewBox="0 0 18 18" xmlns="http://www.w3.org/2000/svg"><path fill="#F0F3FA" d="M0 0h18v18H0z"/><path fill-rule="evenodd" d="M9 7.92C8.62 7.28 7.45 6 5.89 6 3.93 6 3 7.65 3 9c0 1.36.99 3 2.75 3 1.67 0 2.9-1.5 3.2-1.87l.05-.06V7.92Zm-.7 1.07C7.94 8.37 6.96 7.2 5.8 7.2 4.9 7.2 4 8.02 4 9c0 .97.98 1.8 1.81 1.8.83 0 1.82-.73 2.48-1.8Z" fill="url(#asw0i54ei)"/><path d="M8.22 8.87C7.25 7.11 6.24 7 5.8 7A1.83 1.83 0 0 0 4 8.88c.06-.93.92-1.58 1.81-1.58 1.09 0 2.02.93 2.41 1.57Z" fill="url(#bsw0i54ei)"/><path fill-rule="evenodd" d="M9 10.08c.38.64 1.55 1.92 3.11 1.92C14.07 12 15 10.35 15 9c0-1.36-.99-3-2.75-3-1.67 0-2.9 1.5-3.2 1.87L9 7.93v2.15Zm.71-1.07c.34.62 1.32 1.86 2.48 1.86.92 0 1.81-.89 1.81-1.86 0-.98-.98-1.81-1.81-1.81-.83 0-1.82.73-2.48 1.8Z" fill="url(#csw0i54ei)"/><path d="M8.98 10.1c-.31.37-1.56 1.9-3.22 1.9C4.03 12 3.03 10.41 3 9.07c.29 1.28 1.35 2.23 2.45 2.23 1.75 0 3.1-2.24 3.55-3.37C9.3 7.55 10.58 6 12.24 6c1.73 0 2.73 1.58 2.76 2.92-.29-1.28-1.35-2.22-2.45-2.22-1.75 0-3.13 2.26-3.57 3.39Z" fill="url(#dsw0i54ei)"/><path d="M9.78 9.13c.97 1.76 1.98 1.87 2.43 1.87A1.83 1.83 0 0 0 14 9.12c-.06.93-.92 1.58-1.81 1.58-1.09 0-2.02-.93-2.41-1.57Z" fill="url(#esw0i54ei)"/><defs><linearGradient id="asw0i54ei" x1="8.41" y1="7.12" x2="3.73" y2="10.3" gradientUnits="userSpaceOnUse"><stop stop-color="#434B5C"/><stop offset=".79" stop-color="#21293A"/></linearGradient><linearGradient id="bsw0i54ei" x1="7.57" y1="7.94" x2="4.12" y2="7.94" gradientUnits="userSpaceOnUse"><stop stop-color="#3C4555"/><stop offset=".4" stop-color="#757D8D"/></linearGradient><linearGradient id="csw0i54ei" x1="9.36" y1="10.64" x2="14.61" y2="7.98" gradientUnits="userSpaceOnUse"><stop stop-color="#2F3748"/><stop offset="1" stop-color="#727A8A"/></linearGradient><linearGradient id="dsw0i54ei" x1="14.66" y1="7.22" x2="3.29" y2="10.3" gradientUnits="userSpaceOnUse"><stop stop-color="#21293A"/><stop offset="1" stop-color="#737B8B"/></linearGradient><linearGradient id="esw0i54ei" x1="9.97" y1="10.43" x2="13.88" y2="10.35" gradientUnits="userSpaceOnUse"><stop stop-color="#61697A"/><stop offset="1" stop-color="#222A3B"/></linearGradient></defs></svg>
